X:47
T: O KOENNT ICH IN MEIN HEIMATHLAND
N: B0532
O: Europa, Mitteleuropa, Deutschland, Frankfurt a.M.
R: Wander -, Heimat - Lied
M: 4/4
L: 1/8
K: D
DF | A2AFA2BF | A3GG2
EG | c3BA2G2 | F4z2
Ad | f2f2g3f | f3ee2
B2 | A2^GAB3=G | F4z2
Ad | g2f2e2d2 | c3Bed
cB | A2d2c3e | d4z2

